;FLAVOR:Marlin
;TIME:3637
;Filament used: 2.71879m
;Layer height: 0.16
;MINX:49.537
;MINY:74.955
;MINZ:0.2
;MAXX:95.986
;MAXY:111.126
;MAXZ:42
;TARGET_MACHINE.NAME:Artillery Genius
;Generated with Cura_SteamEngine 5.10.0
M140 S60
M105
M190 S60
M104 S200
M105
M109 S200
G28 ; home all axes
 M117 Purge extruder
 G92 E0 ; reset extruder
 G1 Z1.0 F3000 ; move z up little to prevent scratching of surface
 G1 X2 Y20 Z0.3 F5000.0 ; move to start-line position
 G1 X2 Y200.0 Z0.3 F1500.0 E15 ; draw 1st line
 G1 X2 Y200.0 Z0.4 F5000.0 ; move to side a little
 G1 X2 Y20 Z0.4 F1500.0 E30 ; draw 2nd line
 G92 E0 ; reset extruder
 G1 Z1.0 F3000 ; move z up little to prevent scratching of surface
M82 ;absolute extrusion mode
G92 E0
G92 E0
G1 F1500 E-2
;LAYER_COUNT:217
;LAYER:0
M107
G0 F6000 X57.542 Y81.569 Z0.2
;TYPE:SKIRT
G1 F1500 E0
G1 F1200 X58.118 Y81.22 E0.02464
G1 X58.796 Y80.83 E0.05326
G1 X59.907 Y80.21 E0.0998
G1 X61.403 Y79.402 E0.16201
G1 X63.629 Y78.116 E0.25607
G1 X64.716 Y77.461 E0.3025
G1 X65.989 Y76.737 E0.35608
G1 X66.899 Y76.277 E0.39338
G1 X67.845 Y75.898 E0.43067
G1 X68.784 Y75.614 E0.46656
G1 X69.745 Y75.411 E0.50249
G1 X70.835 Y75.282 E0.54265
G1 X71.739 Y75.254 E0.57574
G1 X72.876 Y75.321 E0.61741
G1 X73.884 Y75.473 E0.65471
G1 X74.763 Y75.683 E0.68777
G1 X75.844 Y76.044 E0.72947
G1 X76.778 Y76.457 E0.76683
G1 X77.604 Y76.91 E0.8013
G1 X78.517 Y77.52 E0.84147
G1 X79.249 Y78.111 E0.87589
G1 X79.986 Y78.817 E0.91323
G1 X80.72 Y79.664 E0.95423
G1 X81.453 Y80.708 E1.0009
G1 X81.812 Y81.298 E1.02617
G1 X86.067 Y88.667 E1.33749
G1 X86.493 Y89.43 E1.36946
G1 X86.914 Y90.273 E1.40394
G1 X87.316 Y91.295 E1.44412
G1 X87.573 Y92.162 E1.4772
G1 X87.797 Y93.278 E1.51885
G1 X87.906 Y94.293 E1.5562
G1 X87.924 Y95.314 E1.59356
G1 X87.852 Y96.333 E1.63093
G1 X87.697 Y97.302 E1.66683
G1 X87.439 Y98.33 E1.70561
G1 X87.103 Y99.289 E1.74279
G1 X86.734 Y100.115 E1.77589
G1 X86.178 Y101.112 E1.81765
G1 X85.601 Y101.952 E1.85494
G1 X84.977 Y102.71 E1.89086
G1 X84.235 Y103.465 E1.92958
G1 X83.515 Y104.079 E1.9642
G1 X82.495 Y104.796 E2.00982
G1 X81.911 Y105.151 E2.03482
G1 X81.231 Y105.542 E2.06352
G1 X80.105 Y106.17 E2.11069
G1 X78.565 Y107.003 E2.17475
G1 X76.364 Y108.275 E2.26776
G1 X75.222 Y108.964 E2.31655
G1 X74.015 Y109.648 E2.36731
G1 X73.175 Y110.076 E2.4018
G1 X72.155 Y110.485 E2.44201
G1 X71.176 Y110.779 E2.47941
G1 X70.176 Y110.983 E2.51675
G1 X69.164 Y111.099 E2.55401
G1 X68.26 Y111.126 E2.5871
G1 X67.125 Y111.058 E2.6287
G1 X66.152 Y110.912 E2.6647
G1 X65.123 Y110.661 E2.70345
G1 X64.157 Y110.332 E2.74078
G1 X63.225 Y109.919 E2.77808
G1 X62.398 Y109.465 E2.8126
G1 X61.485 Y108.851 E2.85285
G1 X60.695 Y108.207 E2.89014
G1 X59.962 Y107.495 E2.92753
G1 X59.283 Y106.705 E2.96564
G1 X58.528 Y105.622 E3.01394
G1 X58.156 Y105.005 E3.0403
G1 X53.948 Y97.714 E3.34829
G1 X53.536 Y96.981 E3.37905
G1 X53.08 Y96.067 E3.41642
G1 X52.706 Y95.116 E3.45381
G1 X52.42 Y94.139 E3.49105
G1 X52.22 Y93.137 E3.52844
G1 X52.108 Y92.121 E3.56583
G1 X52.088 Y91.102 E3.60312
G1 X52.157 Y90.085 E3.64042
G1 X52.301 Y89.152 E3.67496
G1 X52.562 Y88.087 E3.71507
G1 X52.853 Y87.232 E3.74812
G1 X53.315 Y86.19 E3.78982
G1 X53.773 Y85.366 E3.82431
G1 X54.39 Y84.457 E3.8645
G1 X55.038 Y83.668 E3.90186
G1 X55.752 Y82.94 E3.93916
G1 X56.471 Y82.322 E3.97385
G1 X57.542 Y81.569 E4.02175
G0 F6000 X57.771 Y81.945
G1 F1200 X58.337 Y81.601 E4.04598
G1 X59.01 Y81.214 E4.07439
G1 X60.116 Y80.597 E4.12072
G1 X61.621 Y79.784 E4.1833
G1 X63.849 Y78.497 E4.27744
G1 X64.934 Y77.843 E4.32379
G1 X66.188 Y77.129 E4.37658
G1 X67.063 Y76.685 E4.41248
G1 X67.973 Y76.319 E4.44837
G1 X68.875 Y76.045 E4.48286
G1 X69.836 Y75.842 E4.51879
G1 X70.849 Y75.722 E4.55611
G1 X71.753 Y75.694 E4.5892
G1 X72.811 Y75.756 E4.62798
G1 X73.782 Y75.901 E4.6639
G1 X74.661 Y76.111 E4.69696
G1 X75.667 Y76.447 E4.73577
G1 X76.566 Y76.843 E4.77171
G1 X77.392 Y77.296 E4.80617
G1 X78.241 Y77.863 E4.84352
G1 X78.945 Y78.429 E4.87657
G1 X79.682 Y79.135 E4.91391
G1 X80.36 Y79.917 E4.95178
G1 X81.077 Y80.937 E4.99739
G1 X81.431 Y81.518 E5.02229
G1 X85.683 Y88.882 E5.33339
G1 X86.099 Y89.627 E5.36461
G1 X86.52 Y90.47 E5.39908
G1 X86.894 Y91.42 E5.43644
G1 X87.151 Y92.287 E5.46952
G1 X87.36 Y93.326 E5.5083
G1 X87.466 Y94.302 E5.54422
G1 X87.485 Y95.284 E5.58015
G1 X87.417 Y96.264 E5.61609
G1 X87.27 Y97.195 E5.65057
G1 X87.023 Y98.185 E5.6879
G1 X86.701 Y99.11 E5.72374
G1 X86.332 Y99.936 E5.75684
G1 X85.815 Y100.863 E5.79567
G1 X85.261 Y101.672 E5.83154
G1 X84.637 Y102.43 E5.86746
G1 X83.949 Y103.13 E5.90337
G1 X83.229 Y103.744 E5.93799
G1 X82.242 Y104.436 E5.98209
G1 X81.691 Y104.77 E6.00567
G1 X81.017 Y105.158 E6.03412
G1 X79.896 Y105.783 E6.08108
G1 X78.345 Y106.622 E6.14559
G1 X76.144 Y107.894 E6.2386
G1 X75.005 Y108.581 E6.28726
G1 X73.815 Y109.256 E6.33732
G1 X72.975 Y109.684 E6.37181
G1 X72.028 Y110.064 E6.40914
G1 X71.087 Y110.348 E6.4451
G1 X70.125 Y110.546 E6.48104
G1 X69.151 Y110.659 E6.51691
G1 X68.247 Y110.686 E6.55
G1 X67.19 Y110.623 E6.58874
G1 X66.217 Y110.477 E6.62474
G1 X65.264 Y110.244 E6.66063
G1 X64.335 Y109.929 E6.69652
G1 X63.437 Y109.533 E6.73243
G1 X62.61 Y109.079 E6.76694
G1 X61.762 Y108.509 E6.80433
G1 X61.001 Y107.891 E6.84019
G1 X60.295 Y107.208 E6.87613
G1 X59.644 Y106.453 E6.9126
G1 X58.905 Y105.394 E6.95985
G1 X58.537 Y104.785 E6.98588
G1 X54.331 Y97.498 E7.29371
G1 X53.929 Y96.784 E7.32369
G1 X53.489 Y95.905 E7.35965
G1 X53.128 Y94.992 E7.39557
G1 X52.851 Y94.052 E7.43142
G1 X52.657 Y93.088 E7.4674
G1 X52.548 Y92.112 E7.50333
G1 X52.527 Y91.131 E7.53923
G1 X52.592 Y90.152 E7.57512
G1 X52.736 Y89.219 E7.60966
G1 X52.979 Y88.229 E7.64696
G1 X53.27 Y87.374 E7.68
G1 X53.7 Y86.404 E7.71882
G1 X54.158 Y85.58 E7.75331
G1 X54.731 Y84.736 E7.79064
G1 X55.353 Y83.976 E7.82657
G1 X56.039 Y83.274 E7.86248
G1 X56.758 Y82.656 E7.89716
G1 X57.771 Y81.945 E7.94244
G0 F6000 X58 Y82.321
G1 F1200 X58.557 Y81.982 E7.9663
G1 X59.224 Y81.598 E7.99446
G1 X60.325 Y80.984 E8.04058
G1 X61.839 Y80.166 E8.10354
G1 X64.069 Y78.878 E8.19776
G1 X65.152 Y78.225 E8.24402
G1 X66.388 Y77.521 E8.29607
G1 X67.228 Y77.093 E8.33056
G1 X68.102 Y76.74 E8.36504
G1 X68.966 Y76.476 E8.3981
G1 X69.927 Y76.273 E8.43403
G1 X70.863 Y76.162 E8.46852
G1 X71.767 Y76.134 E8.50161
G1 X72.747 Y76.191 E8.53752
G1 X73.68 Y76.329 E8.57203
G1 X74.559 Y76.539 E8.60509
G1 X75.49 Y76.85 E8.641
G1 X76.354 Y77.229 E8.67552
G1 X77.18 Y77.682 E8.70999
G1 X77.965 Y78.206 E8.74452
G1 X78.669 Y78.772 E8.77757
G1 X79.377 Y79.452 E8.81348
G1 X80 Y80.17 E8.84826
G1 X80.717 Y81.19 E8.89388
G1 X81.05 Y81.738 E8.91734
G1 X85.299 Y89.097 E9.22823
G1 X85.705 Y89.824 E9.2587
G1 X86.126 Y90.667 E9.29317
G1 X86.472 Y91.545 E9.3277
G1 X86.729 Y92.412 E9.36078
G1 X86.923 Y93.374 E9.39669
G1 X87.026 Y94.311 E9.43117
G1 X87.046 Y95.254 E9.46568
G1 X86.982 Y96.195 E9.50019
G1 X86.835 Y97.126 E9.53467
G1 X86.607 Y98.041 E9.56917
G1 X86.299 Y98.931 E9.60363
G1 X85.93 Y99.757 E9.63673
G1 X85.452 Y100.615 E9.67266
G1 X84.921 Y101.393 E9.70712
G1 X84.323 Y102.122 E9.74162
G1 X83.663 Y102.796 E9.77613
G1 X82.976 Y103.384 E9.80922
G1 X82.013 Y104.06 E9.85226
G1 X81.472 Y104.389 E9.87543
G1 X80.803 Y104.774 E9.90367
G1 X79.687 Y105.396 E9.95041
G1 X78.125 Y106.241 E10.01539
G1 X75.924 Y107.513 E10.10839
G1 X74.788 Y108.198 E10.15693
G1 X73.615 Y108.864 E10.20628
G1 X72.775 Y109.292 E10.24077
G1 X71.9 Y109.643 E10.27526
G1 X70.997 Y109.917 E10.30979
G1 X70.074 Y110.109 E10.34428
G1 X69.138 Y110.219 E10.37876
G1 X68.234 Y110.246 E10.41185
G1 X67.255 Y110.188 E10.44773
G1 X66.321 Y110.049 E10.48228
G1 X65.405 Y109.827 E10.51676
G1 X64.512 Y109.526 E10.55124
G1 X63.649 Y109.147 E10.58572
G1 X62.822 Y108.693 E10.62024
G1 X62.039 Y108.167 E10.65475
G1 X61.306 Y107.574 E10.68924
G1 X60.628 Y106.92 E10.72371
G1 X60.005 Y106.201 E10.75851
G1 X59.266 Y105.142 E10.80576
G1 X58.918 Y104.565 E10.83041
G1 X54.714 Y97.282 E11.13807
G1 X54.322 Y96.586 E11.1673
G1 X53.898 Y95.743 E11.20182
G1 X53.55 Y94.867 E11.23631
G1 X53.282 Y93.964 E11.27077
G1 X53.094 Y93.039 E11.3053
G1 X52.988 Y92.102 E11.3398
G1 X52.966 Y91.159 E11.37431
G1 X53.027 Y90.219 E11.40878
G1 X53.171 Y89.286 E11.44332
G1 X53.396 Y88.371 E11.47779
G1 X53.687 Y87.516 E11.51083
G1 X54.085 Y86.618 E11.54677
G1 X54.543 Y85.794 E11.58126
G1 X55.072 Y85.014 E11.61574
G1 X55.668 Y84.283 E11.65025
G1 X56.326 Y83.608 E11.68474
G1 X57.045 Y82.99 E11.71942
G1 X58 Y82.321 E11.76208
G0 F6000 X58.229 Y82.697
G1 F1200 X58.777 Y82.363 E11.78556
G1 X59.438 Y81.982 E11.81348
G1 X60.534 Y81.371 E11.85939
G1 X62.057 Y80.548 E11.92272
G1 X64.289 Y79.259 E12.01702
G1 X65.37 Y78.607 E12.06321
G1 X66.588 Y77.913 E12.1145
G1 X67.393 Y77.501 E12.14758
G1 X68.231 Y77.161 E12.18067
G1 X69.095 Y76.897 E12.21372
G1 X69.98 Y76.71 E12.24681
G1 X70.877 Y76.602 E12.27987
G1 X71.781 Y76.574 E12.31296
G1 X72.683 Y76.626 E12.34601
G1 X73.578 Y76.757 E12.37911
G1 X74.457 Y76.967 E12.41217
G1 X75.314 Y77.253 E12.44523
G1 X76.143 Y77.615 E12.47832
G1 X76.936 Y78.048 E12.51138
G1 X77.689 Y78.549 E12.54447
G1 X78.393 Y79.115 E12.57752
G1 X79.045 Y79.741 E12.61059
G1 X79.64 Y80.423 E12.6437
G1 X80.341 Y81.419 E12.68826
G1 X80.669 Y81.958 E12.71134
G1 X84.915 Y89.312 E13.02202
G1 X85.312 Y90.021 E13.05175
G1 X85.717 Y90.829 E13.08482
G1 X86.05 Y91.67 E13.11791
G1 X86.307 Y92.537 E13.151
G1 X86.486 Y93.423 E13.18407
G1 X86.586 Y94.321 E13.21713
G1 X86.607 Y95.225 E13.25021
G1 X86.547 Y96.127 E13.28328
G1 X86.408 Y97.02 E13.31635
G1 X86.191 Y97.898 E13.34944
G1 X85.897 Y98.752 E13.38248
G1 X85.528 Y99.578 E13.41558
G1 X85.088 Y100.368 E13.44866
G1 X84.58 Y101.115 E13.48171
G1 X84.008 Y101.815 E13.51479
G1 X83.377 Y102.462 E13.54785
G1 X82.69 Y103.05 E13.58093
G1 X81.784 Y103.684 E13.62139
G1 X81.252 Y104.008 E13.64418
G1 X80.589 Y104.39 E13.67218
G1 X79.478 Y105.009 E13.71871
G1 X77.905 Y105.86 E13.78414
G1 X75.704 Y107.132 E13.87715
G1 X74.571 Y107.815 E13.92555
G1 X73.415 Y108.472 E13.97419
G1 X72.61 Y108.884 E14.00728
G1 X71.772 Y109.222 E14.04034
G1 X70.907 Y109.486 E14.07343
G1 X70.022 Y109.672 E14.10651
G1 X69.125 Y109.779 E14.13956
G1 X68.221 Y109.806 E14.17265
G1 X67.319 Y109.753 E14.20571
G1 X66.424 Y109.621 E14.23881
G1 X65.545 Y109.41 E14.27188
G1 X64.688 Y109.123 E14.30495
G1 X63.86 Y108.761 E14.33801
G1 X63.067 Y108.327 E14.37108
G1 X62.315 Y107.824 E14.40418
G1 X61.611 Y107.257 E14.43725
G1 X60.96 Y106.631 E14.4703
G1 X60.366 Y105.949 E14.50339
G1 X59.643 Y104.914 E14.54958
G1 X59.299 Y104.345 E14.5739
G1 X55.097 Y97.066 E14.8814
G1 X54.715 Y96.387 E14.9099
G1 X54.307 Y95.58 E14.94299
G1 X53.972 Y94.741 E14.97604
G1 X53.713 Y93.875 E15.00911
G1 X53.531 Y92.989 E15.0422
G1 X53.428 Y92.091 E15.07527
G1 X53.405 Y91.187 E15.10836
G1 X53.462 Y90.285 E15.14142
G1 X53.598 Y89.391 E15.17451
G1 X53.813 Y88.513 E15.20758
G1 X54.104 Y87.658 E15.24062
G1 X54.47 Y86.831 E15.27371
G1 X54.908 Y86.04 E15.30679
G1 X55.414 Y85.291 E15.33986
G1 X55.984 Y84.589 E15.37295
G1 X56.613 Y83.941 E15.40599
G1 X57.298 Y83.35 E15.43909
G1 X58.229 Y82.697 E15.48069
G1 F1500 E13.48069
;MESH:cam holder 2 v5.stl
G0 F6000 X62.719 Y91.134
G0 X67.476 Y99.396
G0 X68.587 Y98.753
;TYPE:WALL-INNER
G1 F1500 E15.48069
G1 F1466.7 X68.897 Y98.573 E15.49142
G1 F1470.8 X64.766 Y91.419 E15.73802
G1 F1474.9 X64.457 Y91.598 E15.74865
G1 F1470.8 X68.587 Y98.753 E15.99526
G0 F6000 X68.441 Y99.299
;TYPE:WALL-OUTER
G1 F1200 X69.443 Y98.719 E16.03762
G1 X64.911 Y90.873 E16.36912
G1 X63.913 Y91.453 E16.41135
G1 X68.441 Y99.299 E16.74278
G1 F1500 E14.74278
G0 F6000 X68.884 Y100.065
G0 X70.638 Y99.039
G0 X74.13 Y95.602
G0 X75.24 Y94.961
;TYPE:WALL-INNER
G1 F1500 E16.74278
G1 F1462.6 X75.553 Y94.78 E16.75363
G1 F1458.6 X71.424 Y87.624 E17.00232
G1 X71.112 Y87.804 E17.01316
G1 X75.24 Y94.961 E17.26185
G1 F1500 E15.26185
G0 F6000 X74.13 Y95.602
G0 X72.228 Y92.307
G0 X72.993 Y91.866
;TYPE:WALL-OUTER
G1 F1500 E17.26185
G1 F1200 X75.093 Y95.507 E17.41563
G1 X76.099 Y94.927 E17.45812
G1 X71.571 Y87.077 E17.78967
G1 X70.565 Y87.657 E17.83216
G1 X72.993 Y91.866 E18.00993
G1 F1500 E16.00993
;MESH:NONMESH
G0 F300 X72.993 Y91.866 Z0.4
G0 F6000 X72.228 Y92.307
G0 X58.229 Y82.697
;TIME_ELAPSED:31.793893
;LAYER:1
;note -- min layer time used
M106 S85
;TYPE:SKIRT
G1 F1500 E18.00993
G1 F1137.9 X58.777 Y82.363 E18.03341
G1 X59.438 Y81.982 E18.06132
G1 X60.534 Y81.371 E18.10723
G1 X62.057 Y80.548 E18.17057
G1 X64.289 Y79.259 E18.26487
G1 X65.37 Y78.607 E18.31105
G1 X66.588 Y77.913 E18.36234
G1 X67.393 Y77.501 E18.39543
G1 X68.231 Y77.161 E18.42851
G1 X69.095 Y76.897 E18.46157
G1 X69.98 Y76.71 E18.49466
G1 X70.877 Y76.602 E18.52772
G1 X71.781 Y76.574 E18.56081
G1 X72.683 Y76.626 E18.59386
G1 X73.578 Y76.757 E18.62695
G1 X74.457 Y76.967 E18.66002
G1 X75.314 Y77.253 E18.69307
G1 X76.143 Y77.615 E18.72617
G1 X76.936 Y78.048 E18.75922
G1 X77.689 Y78.549 E18.79231
G1 X78.393 Y79.115 E18.82536
G1 X79.045 Y79.741 E18.85843
G1 X79.64 Y80.423 E18.89155
G1 X80.341 Y81.419 E18.93611
G1 X80.669 Y81.958 E18.95919
G1 X84.915 Y89.312 E19.26987
G1 X85.312 Y90.021 E19.2996
G1 X85.717 Y90.829 E19.33267
G1 X86.05 Y91.67 E19.36576
G1 X86.307 Y92.537 E19.39884
G1 X86.486 Y93.423 E19.43191
G1 X86.586 Y94.321 E19.46497
G1 X86.607 Y95.225 E19.49806
G1 X86.547 Y96.127 E19.53113
G1 X86.408 Y97.02 E19.56419
G1 X86.191 Y97.898 E19.59728
G1 X85.897 Y98.752 E19.63033
G1 X85.528 Y99.578 E19.66343
G1 X85.088 Y100.368 E19.69651
G1 X84.58 Y101.115 E19.72956
G1 X84.008 Y101.815 E19.76263
G1 X83.377 Y102.462 E19.7957
G1 X82.69 Y103.05 E19.82878
G1 X81.784 Y103.684 E19.86924
G1 X81.252 Y104.008 E19.89203
G1 X80.589 Y104.39 E19.92002
G1 X79.478 Y105.009 E19.96655
G1 X77.905 Y105.86 E20.03199
G1 X75.704 Y107.132 E20.12499
G1 X74.571 Y107.815 E20.17339
G1 X73.415 Y108.472 E20.22204
G1 X72.61 Y108.884 E20.25513
G1 X71.772 Y109.222 E20.28818
G1 X70.907 Y109.486 E20.32127
G1 X70.022 Y109.672 E20.35436
G1 X69.125 Y109.779 E20.38741
G1 X68.221 Y109.806 E20.4205
G1 X67.319 Y109.753 E20.45356
G1 X66.424 Y109.621 E20.48665
G1 X65.545 Y109.41 E20.51973
G1 X64.688 Y109.123 E20.55279
G1 X63.86 Y108.761 E20.58586
G1 X63.067 Y108.327 E20.61893
G1 X62.315 Y107.824 E20.65203
G1 X61.611 Y107.257 E20.6851
G1 X60.96 Y106.631 E20.71814
G1 X60.366 Y105.949 E20.75123
G1 X59.643 Y104.914 E20.79742
G1 X59.299 Y104.345 E20.82175
G1 X55.097 Y97.066 E21.12925
G1 X54.715 Y96.387 E21.15775
G1 X54.307 Y95.58 E21.19084
G1 X53.972 Y94.741 E21.22389
G1 X53.713 Y93.875 E21.25696
G1 X53.531 Y92.989 E21.29005
G1 X53.428 Y92.091 E21.32312
G1 X53.405 Y91.187 E21.3562
G1 X53.462 Y90.285 E21.38927
G1 X53.598 Y89.391 E21.42236
G1 X53.813 Y88.513 E21.45543
G1 X54.104 Y87.658 E21.48847
G1 X54.47 Y86.831 E21.52156
G1 X54.908 Y86.04 E21.55464
G1 X55.414 Y85.291 E21.58771
G1 X55.984 Y84.589 E21.62079
G1 X56.613 Y83.941 E21.65383
G1 X57.298 Y83.35 E21.68693
G1 X58.229 Y82.697 E21.72854
G1 F1500 E19.72854
;MESH:cam holder 2 v5.stl
G0 F7500 X62.719 Y91.134
G0 X67.476 Y99.396
G0 X68.587 Y98.753
;TYPE:WALL-INNER
G1 F1500 E21.72854
G1 F1390.8 X68.897 Y98.573 E21.73927
G1 F1394.7 X64.766 Y91.419 E21.98587
G1 F1398.6 X64.457 Y91.598 E21.9965
G1 F1394.7 X68.587 Y98.753 E22.24311
G0 F7500 X68.441 Y99.299
;TYPE:WALL-OUTER
G1 F1137.9 X69.443 Y98.719 E22.28547
G1 X64.911 Y90.873 E22.61697
G1 X63.913 Y91.453 E22.6592
G1 X68.441 Y99.299 E22.99063
G1 F1500 E20.99063
G0 F7500 X68.884 Y100.065
G0 X70.638 Y99.039
G0 X74.13 Y95.602
G0 X75.24 Y94.961
;TYPE:WALL-INNER
G1 F1500 E22.99063
G1 F1386.9 X75.553 Y94.78 E23.00148
G1 F1383.1 X71.424 Y87.624 E23.25016
G1 X71.112 Y87.804 E23.26101
G1 X75.24 Y94.961 E23.5097
G1 F1500 E21.5097
G0 F7500 X74.13 Y95.602
